X:16
T:Kurakin
C:Hodsdull's 24 Favourite Country Dances 1826
N:Hodsdull's 24 Favourite Country Dances 1826
N:via Maxwell's Demon [Nick & Mary Barber, Jim & Bernice Harding]
N:via Tony Dunn
I:abc2nwc
M:6/8
L:1/8
K:G
|:G2G G3|GAB GAB|A2A A3|ABc ABc|
B2B Bcd|c2c cde|ded cBA|[1G2d c2A:|[2G2d e2f
|:g3gab|a2f d2^d|e3efg|f2d B3|
c2c cde|d2B G2B|ded cBA|[1G2d e2f:|[2G2d c2A|]


